24x24/actions/timeline-extract.svg

<svg xmlns="http://www.w3.org/2000/svg" width="24" height="24"><defs id="defs3051"><style type="text/css" id="current-color-scheme">.ColorScheme-Text{color:#555e70}</style></defs><path style="fill:currentColor;fill-opacity:1;stroke:none" d="M3 11h4v4H3zM17 11V9l-4 4 4 4v-2h2v-4zM6 10h1v1H6z" class="ColorScheme-Text" transform="translate(1 1)"/><path style="fill:#ff3d81" d="M8.707 10.5 8 11.207 9.793 13 8 14.793l.707.707 1.793-1.793 1.793 1.793.707-.707L11.207 13 13 11.207l-.707-.707-1.793 1.793L8.707 10.5z" transform="translate(1 1)"/></svg>

<svg xmlns="http://www.w3.org/2000/svg" viewBox="0 0 24 24" width="24" height="24">
  <defs id="defs3051">
    <style type="text/css" id="current-color-scheme">
      .ColorScheme-Text {
        color:#555e70;
      }
      </style>
  </defs>
  <g transform="translate(1,1)">
    <path style="fill:currentColor;fill-opacity:1;stroke:none" d="M3 11H7V15H3z" class="ColorScheme-Text"/>
    <path style="fill:currentColor;fill-opacity:1;stroke:none" d="M17 11l0-2-4 4 4 4 0-2 2 0 0-4zM6 10H7V11H6z" class="ColorScheme-Text"/>
    <path style="fill:#ff3d81" d="M 8.707,10.5 8,11.207 9.793,13 8,14.793 8.707,15.5 10.5,13.707 12.293,15.5 13,14.793 11.207,13 13,11.207 12.293,10.5 10.5,12.293 8.707,10.5 Z"/>
  </g>
</svg>
